packages/synapse-interface/assets/icons/sfi.svg

<svg fill="none" height="48" viewBox="0 0 48 48" width="48" xmlns="http://www.w3.org/2000/svg"><rect fill="#c44536" height="48" rx="24" width="48"/><path d="m22.3091 31.9125c.0378-8.0875.0378-8.0875-.3877-8.1551-1.783-.2832-2.9208-.7092-4.1852-1.567-1.6988-1.1525-2.7535-2.7251-3.1775-4.7374-.2911-1.3818-.1893-2.5795.368-4.3301.5714-1.7946.5883-2.4036.0947-3.39794l-.3765-.75853 1.5122-.54382c1.7173-.61754 1.6882-.62327 2.1333.41985.4397 1.03028.3944 2.57924-.1238 4.23664-.5205 1.6648-.6312 2.4505-.4922 3.4884.2699 2.0117 1.5198 3.3114 3.7293 3.8773 1.1936.3058 4.1981.3026 5.259-.0058 1.0696-.3107 2.1018-.91 2.6299-1.5273 1.1792-1.3784 1.392-3.1546.6647-5.5483-.6608-2.174-.6253-4.04228.096-5.05194.2155-.30168.2155-.30168 1.4213.03921 2.1931.62005 2.0371.49709 1.5918 1.25395-.5178.88008-.5019 1.59528.0813 3.67428.6657 2.3732.6051 3.8405-.2387 5.7848-.5884 1.3555-1.9815 2.796-3.3676 3.4817-1.0856.5373-2.9478 1.1517-3.4902 1.1517-.6307 0-.6949.0807-.5914.7437.0519.3323.0975 3.9691.1015 8.0818l.0072 7.4774h-1.6487-1.6484zm-7.6818 3.9797v-1.5404h2.9785 2.9784v1.5404 1.5404h-2.9784-2.9785zm12.6433 0v-1.5404h2.9784 2.9784v1.5404 1.5404h-2.9784-2.9784zm-12.6433-5.0064v-1.5404h2.9785 2.9784v1.5404 1.5404h-2.9784-2.9785zm12.6433 0v-1.5404h2.9784 2.9784v1.5404 1.5404h-2.9784-2.9784zm-12.6433-5.0064v-1.5404h2.9785 2.9784v1.5404 1.5404h-2.9784-2.9785zm12.6433 0v-1.5404h2.9784 2.9784v1.5404 1.5404h-2.9784-2.9784zm-2.0506-7.0924c-.3443-.7236-.8074-1.8529-1.029-2.5096l-.4028-1.1937-.2072.8087c-.248.9684-1.6512 4.0852-1.8344 4.0746-.0711-.0041-.7156-.3075-1.4324-.674l-1.3032-.6664 1.7288-3.4308 1.7287-3.4307 1.3425-.0032 1.3426-.0031 1.7357 3.4141c.9545 1.8778 1.7181 3.4301 1.6966 3.4498-.0886.0815-2.6176 1.48-2.6761 1.48-.0351 0-.3455-.592-.6898-1.3157z" fill="#fff"/></svg>

<svg width="48" height="48" viewBox="0 0 48 48" fill="none" xmlns="http://www.w3.org/2000/svg">
<rect width="48" height="48" rx="24" fill="#C44536"/>
<path d="M22.3091 31.9125C22.3469 23.825 22.3469 23.825 21.9214 23.7574C20.1384 23.4742 19.0006 23.0482 17.7362 22.1904C16.0374 21.0379 14.9827 19.4653 14.5587 17.453C14.2676 16.0712 14.3694 14.8735 14.9267 13.1229C15.4981 11.3283 15.515 10.7193 15.0214 9.72496L14.6449 8.96643L16.1571 8.42261C17.8744 7.80507 17.8453 7.79934 18.2904 8.84246C18.7301 9.87274 18.6848 11.4217 18.1666 13.0791C17.6461 14.7439 17.5354 15.5296 17.6744 16.5675C17.9443 18.5792 19.1942 19.8789 21.4037 20.4448C22.5973 20.7506 25.6018 20.7474 26.6627 20.439C27.7323 20.1283 28.7645 19.529 29.2926 18.9117C30.4718 17.5333 30.6846 15.7571 29.9573 13.3634C29.2965 11.1894 29.332 9.32112 30.0533 8.31146C30.2688 8.00978 30.2688 8.00978 31.4746 8.35067C33.6677 8.97072 33.5117 8.84776 33.0664 9.60462C32.5486 10.4847 32.5645 11.1999 33.1477 13.2789C33.8134 15.6521 33.7528 17.1194 32.909 19.0637C32.3206 20.4192 30.9275 21.8597 29.5414 22.5454C28.4558 23.0827 26.5936 23.6971 26.0512 23.6971C25.4205 23.6971 25.3563 23.7778 25.4598 24.4408C25.5117 24.7731 25.5573 28.4099 25.5613 32.5226L25.5685 40H23.9198H22.2714L22.3091 31.9125ZM14.6273 35.8922V34.3518H17.6058H20.5842V35.8922V37.4326H17.6058H14.6273V35.8922ZM27.2706 35.8922V34.3518H30.249H33.2274V35.8922V37.4326H30.249H27.2706V35.8922ZM14.6273 30.8858V29.3454H17.6058H20.5842V30.8858V32.4262H17.6058H14.6273V30.8858ZM27.2706 30.8858V29.3454H30.249H33.2274V30.8858V32.4262H30.249H27.2706V30.8858ZM14.6273 25.8794V24.339H17.6058H20.5842V25.8794V27.4198H17.6058H14.6273V25.8794ZM27.2706 25.8794V24.339H30.249H33.2274V25.8794V27.4198H30.249H27.2706V25.8794ZM25.22 18.787C24.8757 18.0634 24.4126 16.9341 24.191 16.2774L23.7882 15.0837L23.581 15.8924C23.333 16.8608 21.9298 19.9776 21.7466 19.967C21.6755 19.9629 21.031 19.6595 20.3142 19.293L19.011 18.6266L20.7398 15.1958L22.4685 11.7651L23.811 11.7619L25.1536 11.7588L26.8893 15.1729C27.8438 17.0507 28.6074 18.603 28.5859 18.6227C28.4973 18.7042 25.9683 20.1027 25.9098 20.1027C25.8747 20.1027 25.5643 19.5107 25.22 18.787Z" fill="white"/>
</svg>
